X:0
T:Trapdoor Banjo Blues, The
M:C|
C:© Paul Gitlitz  2010
R:Reel
K:D
D(=F|"D7"^F)ABF "Bdim7"A2D(=F|"D7"^F)ABF "Bdim/F"d2D(=F|"D7"^F)ABF "Bdim7"ABAF|"A7"EDEF "D7"D2D(=F|!
"D7"^F)ABF "Bdim"A2D(=F|"D7"^F)ABF "G7"d2D(=F|"D"^F)ABF "F#m7"ABAF|"A7"EDEF "D7"D2DE|!
"G7"=FEFE DB,DE|=FEFE DB,D(F|"D7"^F)ABF ABAF|"D"A4-A2DE|!
"G7"=FEFE DB,DE|=FEFE DB,D(F|"D7"^F)ABF dBAF|"A7"E4-E2|]
